icons/glyphs/glyph-midi.svg

<?xml version="1.0" encoding="UTF-8" standalone="no"?><svg height="16" viewBox="0 0 4.2333333 4.2333333" width="16" xmlns="http://www.w3.org/2000/svg"><sodipodi:namedview/><metadata><rdf:RDF><cc:Work><dc:format>image/svg+xml</dc:format><dc:type/><dc:title/></cc:Work></rdf:RDF></metadata><path d="m .0128251.8152855c-.00733.00733-.012828.3628571-.012828.7898556v.7751946h.2015872.2015873v-.5864357-.5864356h.1007936.1007936v.5864356.5864357h.1832611.1832613v-.5864357-.5864356h.1007936.1007936v.5864356.5864357h.201587.2015872v-.6927272c0-.6212552-.00367-.6982249-.032987-.7550359-.058644-.1172871-.065974-.1191197-.8283404-.1246175-.3793506-.00367-.6945598 0-.7018901.00733zm1.7281527.7770273v.7898555l.197922-.0055.1960895-.0055v-.7788555-.7788599l-.1960895-.0055-.197922-.0055zm.5854048-.764199c-.0055.012828-.00916.098961-.0055.188759l.0055.1631024.4636507.0055.4618181.00367v.394005.3940116h-.2657286-.2657287v-.3023816-.3042135l-.1960894.0055-.1979221.0055v.494805.4948052l.5772726.0055c.6359163.0055.6963924-.00183.731212-.086132.025657-.060476.020159-1.3268106-.0055-1.381789-.00916-.018326-.04215-.045815-.073304-.064142-.04948-.027489-.131948-.031154-.6395814-.036652-.485642-.0055-.5827705-.00183-.5901013.020158zm1.5108738 0c-.0055.010996-.00733.3646897-.0055.7825251l.0055.7605338.197922.0055.1960895.0055v-.7898599-.7880229h-.1924243c-.1374459 0-.1960894.00733-.2015872.0238239zm-3.8372595 2.1416356v.302381l2.113001-.00367 2.1111685-.0055.0055-.2987156.00367-.2968831h-2.1166725-2.1166663z" fill="#d0d0d0" stroke-width=".026458"/></svg>

<?xml version="1.0" encoding="UTF-8" standalone="no"?>
<!-- Created with Inkscape (http://www.inkscape.org/) -->

<svg
     xmlns:dc="http://purl.org/dc/elements/1.1/"
     xmlns:cc="http://creativecommons.org/ns#"
     xmlns:rdf="http://www.w3.org/1999/02/22-rdf-syntax-ns#"
     xmlns:svg="http://www.w3.org/2000/svg"
     xmlns="http://www.w3.org/2000/svg"
     xmlns:sodipodi="http://sodipodi.sourceforge.net/DTD/sodipodi-0.dtd"
     xmlns:inkscape="http://www.inkscape.org/namespaces/inkscape"
     width="16"
     height="16"
     viewBox="0 0 4.2333333 4.2333333"
     version="1.1"
     id="svg8"
     inkscape:version="0.92+devel (fa9b7f7a5b, 2017-07-19, custom)"
     sodipodi:docname="glyph-midi.svg">
    <defs
         id="defs2" />
    <sodipodi:namedview
         id="base"
         pagecolor="#002466"
         bordercolor="#ffffff"
         borderopacity="0.38039216"
         inkscape:pageopacity="1"
         inkscape:pageshadow="2"
         inkscape:zoom="26.8125"
         inkscape:cx="13.472244"
         inkscape:cy="9.1388085"
         inkscape:document-units="px"
         inkscape:current-layer="svg8"
         inkscape:document-rotation="0"
         showgrid="false"
         inkscape:showpageshadow="false"
         borderlayer="true"
         inkscape:window-width="1920"
         inkscape:window-height="1051"
         inkscape:window-x="0"
         inkscape:window-y="0"
         inkscape:window-maximized="1"
         units="px" />
    <metadata
         id="metadata5">
        <rdf:RDF>
            <cc:Work
                 rdf:about="">
                <dc:format>image/svg+xml</dc:format>
                <dc:type
                     rdf:resource="http://purl.org/dc/dcmitype/StillImage" />
                <dc:title></dc:title>
            </cc:Work>
        </rdf:RDF>
    </metadata>
    <path
         style="fill:#d0d0d0;stroke-width:0.02645833"
         id="midi-path"
         d="M 0.0128251,0.8152855 C 0.0054951,0.8226155 -2.9e-6,1.1781426 -2.9e-6,1.6051411 V 2.3803357 H 0.2015843 0.4031716 V 1.7939 1.2074644 H 0.5039652 0.6047588 V 1.7939 2.3803357 H 0.7880199 0.9712812 V 1.7939 1.2074644 H 1.0720748 1.1728684 V 1.7939 2.3803357 h 0.201587 0.2015872 V 1.6876085 c 0,-0.6212552 -0.00367,-0.6982249 -0.032987,-0.7550359 -0.058644,-0.1172871 -0.065974,-0.1191197 -0.8283404,-0.1246175 -0.3793506,-0.00367 -0.6945598,0 -0.7018901,0.00733 z m 1.7281527,0.7770273 v 0.7898555 l 0.197922,-0.0055 0.1960895,-0.0055 V 1.5923128 0.8134529 l -0.1960895,-0.0055 -0.197922,-0.0055 z m 0.5854048,-0.764199 c -0.0055,0.012828 -0.00916,0.098961 -0.0055,0.188759 l 0.0055,0.1631024 0.4636507,0.0055 0.4618181,0.00367 v 0.394005 0.3940116 H 2.9861228 2.7203941 V 1.6747802 1.3705667 l -0.1960894,0.0055 -0.1979221,0.0055 v 0.494805 0.4948052 l 0.5772726,0.0055 c 0.6359163,0.0055 0.6963924,-0.00183 0.731212,-0.086132 0.025657,-0.060476 0.020159,-1.3268106 -0.0055,-1.381789 -0.00916,-0.018326 -0.04215,-0.045815 -0.073304,-0.064142 -0.04948,-0.027489 -0.131948,-0.031154 -0.6395814,-0.036652 -0.485642,-0.0055 -0.5827705,-0.00183 -0.5901013,0.020158 z m 1.5108738,0 c -0.0055,0.010996 -0.00733,0.3646897 -0.0055,0.7825251 l 0.0055,0.7605338 0.197922,0.0055 0.1960895,0.0055 V 1.5923128 0.8042899 H 4.0388436 c -0.1374459,0 -0.1960894,0.00733 -0.2015872,0.0238239 z M -3.1e-6,2.9697494 v 0.302381 l 2.113001,-0.00367 2.1111685,-0.0055 0.0055,-0.2987156 0.00367,-0.2968831 H 2.1166639 -2.4e-6 Z"
         inkscape:connector-curvature="0"
         sodipodi:nodetypes="cscccccccccccccccccccscccccccccccccccccccccccccccccccccccccccccscccccccccc"
         inkscape:label="#" />
</svg>
